src/assets/svg/loop-big.svg

<svg width="42" height="42" viewBox="0 0 42 42" fill="none" xmlns="http://www.w3.org/2000/svg">
<g clip-path="url(#clip0)">
<path d="M17.5094 2.80823C9.39385 2.80823 2.81494 9.38713 2.81494 17.5027C2.81494 25.6182 9.39385 32.1971 17.5094 32.1971C25.6249 32.1971 32.2038 25.6182 32.2038 17.5027C32.195 9.39081 25.6212 2.81706 17.5094 2.80823ZM17.5094 4.2077C21.8316 4.21111 25.882 6.31766 28.3664 9.85456L26.6171 11.6039C26.1914 11.3463 25.704 11.2085 25.2064 11.205C23.6606 11.205 22.4075 12.4582 22.4075 14.004C22.41 14.5021 22.547 14.9903 22.8043 15.4167L18.2224 19.9986C17.3548 19.4696 16.2645 19.4696 15.3969 19.9986L12.2145 16.8162C12.4717 16.3897 12.6088 15.9016 12.6112 15.4035C12.6132 13.8607 11.3641 12.6085 9.82138 12.6066C8.54551 12.605 7.43074 13.4681 7.11271 14.7037H4.5167C5.84156 8.58567 11.2495 4.21688 17.5094 4.2077ZM26.6059 14.004C26.6059 14.7769 25.9794 15.4035 25.2064 15.4035C24.4335 15.4035 23.807 14.7769 23.807 14.004C23.807 13.231 24.4335 12.6045 25.2064 12.6045C25.9794 12.6045 26.6059 13.231 26.6059 14.004ZM18.2091 22.4008C18.2091 23.1737 17.5826 23.8003 16.8096 23.8003C16.0367 23.8003 15.4102 23.1737 15.4102 22.4008C15.4102 21.6279 16.0367 21.0013 16.8096 21.0013C17.5826 21.0013 18.2091 21.6279 18.2091 22.4008ZM11.2118 15.4035C11.2118 16.1764 10.5852 16.8029 9.81229 16.8029C9.03934 16.8029 8.41282 16.1764 8.41282 15.4035C8.41282 14.6305 9.03934 14.004 9.81229 14.004C10.5852 14.004 11.2118 14.6305 11.2118 15.4035ZM23.9691 29.1275C21.9931 30.2247 19.7697 30.7995 17.5094 30.7975C10.1718 30.8025 4.2194 24.8584 4.21441 17.5208C4.21406 17.0472 4.23908 16.5739 4.28928 16.1031H7.11271C7.43083 17.3351 8.53991 18.1975 9.81229 18.2023C10.3104 18.1999 10.7986 18.0628 11.2251 17.8056L14.4074 20.9879C14.1502 21.4144 14.0131 21.9026 14.0107 22.4007C14.0107 23.9465 15.2638 25.1996 16.8096 25.1996C18.3554 25.1996 19.6086 23.9465 19.6086 22.4007C19.6061 21.9026 19.4691 21.4144 19.2118 20.9879L23.7937 16.4061C24.2202 16.6633 24.7083 16.8004 25.2064 16.8028C26.7523 16.8028 28.0054 15.5497 28.0054 14.0039C28.0029 13.5058 27.8659 13.0176 27.6086 12.5911L29.1341 11.0664C32.6953 17.4802 30.3828 25.5664 23.9691 29.1275Z" fill="black"/>
<path d="M35.0026 7.00661C36.275 7.0018 37.3841 6.13947 37.7022 4.90741H42V3.50794H37.7022C37.3841 2.27588 36.275 1.41355 35.0026 1.40874C33.4568 1.40874 32.2037 2.66187 32.2037 4.20767C32.2061 4.7058 32.3432 5.19395 32.6004 5.62044L31.371 6.84987C25.4884 -0.814059 14.5068 -2.25814 6.84285 3.62445C-0.821078 9.50703 -2.26516 20.4888 3.61743 28.1527C9.17017 35.3868 19.3488 37.1417 27.0033 32.1845L29.1151 34.2963L30.1045 35.2857L35.7374 40.9186C37.17 42.3512 39.4926 42.3512 40.9252 40.9186C42.3578 39.4859 42.3578 37.1633 40.9252 35.7307L35.2923 30.0979L34.3029 29.1084L32.1911 26.9966C35.9398 21.2224 35.9398 13.7829 32.1911 8.00863L33.5906 6.60916C34.0168 6.86649 34.5048 7.00381 35.0026 7.00661ZM35.0026 2.8082C35.7756 2.8082 36.4021 3.43473 36.4021 4.20767C36.4021 4.98062 35.7756 5.60714 35.0026 5.60714C34.2297 5.60714 33.6032 4.98062 33.6032 4.20767C33.6032 3.43473 34.2298 2.8082 35.0026 2.8082ZM39.9358 36.7201C40.8319 37.5962 40.8483 39.0329 39.9722 39.9291C39.0962 40.8253 37.6594 40.8417 36.7632 39.9656C36.7509 39.9536 36.7388 39.9415 36.7268 39.9291L31.0939 34.2963L34.3029 31.0873L39.9358 36.7201ZM33.3135 30.0979L30.1045 33.3068L28.1676 31.37C28.2663 31.2944 28.3587 31.2111 28.4559 31.1335C28.5532 31.0558 28.6658 30.9627 28.7701 30.8753C28.9233 30.7465 29.0745 30.6164 29.2228 30.4827C29.2991 30.4127 29.3719 30.3428 29.4467 30.2728C29.7336 30.0041 30.0114 29.7263 30.2801 29.4394C30.3501 29.3645 30.4201 29.2918 30.49 29.2155C30.6237 29.0672 30.7538 28.916 30.8826 28.7628C30.9703 28.6592 31.0564 28.5545 31.1408 28.4486C31.2178 28.352 31.301 28.2597 31.3766 28.161L33.3135 30.0979ZM30.5999 26.8476C30.3795 27.1555 30.1521 27.4571 29.9121 27.7475C29.8421 27.8321 29.7672 27.914 29.6951 27.9973C29.481 28.2464 29.2599 28.488 29.0318 28.7222C28.9324 28.8248 28.8314 28.9258 28.7288 29.0252C28.4955 29.2533 28.2539 29.4744 28.0039 29.6885C27.9206 29.7585 27.8387 29.8348 27.7541 29.9054C27.4637 30.1454 27.1621 30.3729 26.8542 30.5933C19.6106 35.7682 9.54322 34.0912 4.36824 26.8476C-0.806733 19.6039 0.870268 9.53659 8.11392 4.36162C15.3576 -0.813359 25.4249 0.863555 30.5999 8.1073C34.6042 13.7123 34.6042 21.2425 30.5999 26.8476Z" fill="black"/>
<path d="M26.6059 14.004C26.6059 14.7769 25.9793 15.4034 25.2064 15.4034C24.4335 15.4034 23.8069 14.7769 23.8069 14.004C23.8069 13.231 24.4335 12.6045 25.2064 12.6045C25.9793 12.6045 26.6059 13.231 26.6059 14.004ZM18.2091 22.4008C18.2091 23.1737 17.5825 23.8003 16.8096 23.8003C16.0366 23.8003 15.4101 23.1737 15.4101 22.4008C15.4101 21.6278 16.0366 21.0013 16.8096 21.0013C17.5825 21.0013 18.2091 21.6278 18.2091 22.4008ZM11.2117 15.4034C11.2117 16.1764 10.5852 16.8029 9.81224 16.8029C9.03929 16.8029 8.41277 16.1764 8.41277 15.4034C8.41277 14.6305 9.03929 14.004 9.81224 14.004C10.5852 14.004 11.2117 14.6305 11.2117 15.4034Z" fill="#E10303"/>
<path d="M35.0027 2.80822C35.7757 2.80822 36.4022 3.43475 36.4022 4.20769C36.4022 4.98064 35.7757 5.60716 35.0027 5.60716C34.2298 5.60716 33.6032 4.98064 33.6032 4.20769C33.6032 3.43475 34.2299 2.80822 35.0027 2.80822Z" fill="#E10303"/>
</g>
<defs>
<clipPath id="clip0">
<rect width="42" height="42" fill="white"/>
</clipPath>
</defs>
</svg>

<svg width="42" height="42" fill="none" xmlns="http://www.w3.org/2000/svg">
  <g clip-path="url(#prefix__clip0)">
    <path
      d="M17.51 2.808c-8.116 0-14.695 6.58-14.695 14.695s6.579 14.694 14.694 14.694c8.116 0 14.695-6.579 14.695-14.694C32.195 9.39 25.62 2.817 17.509 2.808zm0 1.4a13.28 13.28 0 0110.856 5.647l-1.749 1.749a2.762 2.762 0 00-1.41-.399 2.799 2.799 0 00-2.8 2.799c.003.498.14.986.397 1.413l-4.582 4.582a2.714 2.714 0 00-2.825 0l-3.183-3.183c.258-.426.395-.914.397-1.412a2.793 2.793 0 00-5.498-.7H4.517A13.314 13.314 0 0117.509 4.208zm9.096 9.796a1.4 1.4 0 11-2.799 0 1.4 1.4 0 012.799 0zm-8.397 8.397a1.4 1.4 0 11-2.799 0 1.4 1.4 0 012.8 0zm-6.997-6.998a1.4 1.4 0 11-2.8 0 1.4 1.4 0 012.8 0zm12.757 13.725a13.283 13.283 0 01-6.46 1.67c-7.337.005-13.29-5.94-13.295-13.277 0-.474.025-.947.075-1.418h2.824a2.799 2.799 0 002.7 2.1c.497-.003.986-.14 1.412-.397l3.182 3.182a2.762 2.762 0 00-.396 1.413 2.799 2.799 0 105.598 0 2.762 2.762 0 00-.397-1.413l4.582-4.582c.426.257.914.394 1.412.397a2.799 2.799 0 002.8-2.8 2.762 2.762 0 00-.397-1.412l1.525-1.525c3.561 6.414 1.249 14.5-5.165 18.062z"
      fill="#000" />
    <path
      d="M35.003 7.007a2.799 2.799 0 002.7-2.1H42v-1.4h-4.298a2.799 2.799 0 00-2.7-2.098 2.799 2.799 0 00-2.798 2.799c.002.498.14.986.396 1.412l-1.229 1.23C25.488-.814 14.507-2.258 6.843 3.624-.821 9.507-2.265 20.49 3.617 28.153c5.553 7.234 15.732 8.989 23.386 4.032l2.112 2.111.99.99 5.632 5.633a3.668 3.668 0 105.188-5.188l-5.633-5.633-.99-.99-2.11-2.111a17.435 17.435 0 000-18.988l1.399-1.4c.426.257.914.395 1.412.398zm0-4.199a1.4 1.4 0 110 2.799 1.4 1.4 0 010-2.799zm4.933 33.912a2.27 2.27 0 11-3.21 3.21l-5.632-5.634 3.209-3.209 5.633 5.633zm-6.623-6.622l-3.209 3.209-1.936-1.937c.098-.076.19-.159.288-.236a18.068 18.068 0 00.767-.651l.224-.21c.287-.269.564-.547.833-.834.07-.075.14-.147.21-.224a17.317 17.317 0 00.65-.766c.078-.097.161-.19.237-.288l1.936 1.937zm-2.713-3.25c-.22.308-.448.61-.688.9-.07.084-.145.166-.217.25a15.79 15.79 0 01-1.691 1.69c-.083.07-.165.147-.25.217-.29.24-.592.468-.9.688-7.243 5.175-17.31 3.498-22.486-3.745C-.807 19.604.87 9.537 8.114 4.362 15.358-.813 25.424.864 30.6 8.107a16.12 16.12 0 010 18.74z"
      fill="#000" />
    <path
      d="M26.606 14.004a1.4 1.4 0 11-2.799 0 1.4 1.4 0 012.799 0zm-8.397 8.397a1.4 1.4 0 11-2.799 0 1.4 1.4 0 012.8 0zm-6.997-6.998a1.4 1.4 0 11-2.8 0 1.4 1.4 0 012.8 0zM35.003 2.808a1.4 1.4 0 110 2.799 1.4 1.4 0 010-2.799z"
      fill="#E10303" />
  </g>
  <defs>
    <clipPath id="prefix__clip0">
      <path fill="#fff" d="M0 0h42v42H0z" />
    </clipPath>
  </defs>
</svg>
